X: 7
M:2/4
L:1/16
K:A
((3uEFG)|AGBG .A2(Bc)|dBGB .A2(Bc)|\
dcfe dcBA|BABG .E2(FG)|
(3eag (3fed (3cde (3cBA|(3GAB (3EFG A2:|
|:vcd|ecAa fdBa|gbeg .a2(gf)|e^dfe =dcBA|
dBGB ecAc|eagf (3efe (3dcB|A2a2A2:|


